images-source/features/schedule.svg

<?xml version="1.0" encoding="UTF-8"?>
<svg width="78px" height="81px" viewBox="0 0 78 81" version="1.1" xmlns="http://www.w3.org/2000/svg" xmlns:xlink="http://www.w3.org/1999/xlink">
    <!-- Generator: Sketch 48.2 (47327) - http://www.bohemiancoding.com/sketch -->
    <title>schedule</title>
    <desc>Created with Sketch.</desc>
    <defs></defs>
    <g id="platform" stroke="none" stroke-width="1" fill="none" fill-rule="evenodd" transform="translate(-381.000000, -4949.000000)">
        <g id="Group-13-Copy" transform="translate(25.000000, 4782.000000)">
            <g id="Group-4" transform="translate(356.000000, 159.000000)">
                <g id="schedule" transform="translate(0.000000, 8.000000)">
                    <rect id="Rectangle-3-Copy" fill="#FFFFFF" x="3" y="17" width="72" height="41"></rect>
                    <rect id="Rectangle-3" fill="#FFAF1D" x="3" y="7" width="72" height="13"></rect>
                    <circle id="Oval-2" fill="#00AAE3" cx="38" cy="58" r="19"></circle>
                    <g id="clock" fill="#000000" fill-rule="nonzero">
                        <path d="M75.2971818,4.6949697 L59.8094545,4.6949697 L59.8094545,2.36363636 C59.8094545,1.05851515 58.7509394,0 57.4458182,0 C56.140697,0 55.0821818,1.05851515 55.0821818,2.36363636 L55.0821818,4.6949697 L41.2734242,4.6949697 L41.2734242,2.36363636 C41.2734242,1.05851515 40.2149091,0 38.9097879,0 C37.6046667,0 36.5461515,1.05851515 36.5461515,2.36363636 L36.5461515,4.6949697 L23.3243636,4.6949697 L23.3243636,2.36363636 C23.3243636,1.05851515 22.2658485,0 20.9607273,0 C19.6556061,0 18.5970909,1.05851515 18.5970909,2.36363636 L18.5970909,4.6949697 L2.52278788,4.6949697 C1.21766667,4.6949697 0.159151515,5.75348485 0.159151515,7.05860606 L0.159151515,60.4657576 C0.159151515,61.7708788 1.21766667,62.8293939 2.52278788,62.8293939 L17.03,62.8293939 C19.3546364,72.7621818 28.2789394,80.1836061 38.9097879,80.1836061 C49.5406364,80.1836061 58.4649394,72.7617879 60.7895758,62.8293939 L75.2967879,62.8293939 C76.6019091,62.8293939 77.6604242,61.7708788 77.6604242,60.4657576 L77.6604242,7.05860606 C77.6608182,5.75348485 76.602697,4.6949697 75.2971818,4.6949697 Z M18.5970909,9.42224242 L18.5970909,11.5581818 C18.5970909,12.863303 19.6556061,13.9218182 20.9607273,13.9218182 C22.2658485,13.9218182 23.3243636,12.863303 23.3243636,11.5581818 L23.3243636,9.42224242 L36.5461515,9.42224242 L36.5461515,11.5581818 C36.5461515,12.863303 37.6046667,13.9218182 38.9097879,13.9218182 C40.2149091,13.9218182 41.2734242,12.863303 41.2734242,11.5581818 L41.2734242,9.42224242 L55.0821818,9.42224242 L55.0821818,11.5581818 C55.0821818,12.863303 56.140697,13.9218182 57.4458182,13.9218182 C58.7509394,13.9218182 59.8094545,12.863303 59.8094545,11.5581818 L59.8094545,9.42224242 L72.9335455,9.42224242 L72.9335455,19.0879394 L4.88642424,19.0879394 L4.88642424,9.42224242 L18.5970909,9.42224242 Z M38.9097879,75.4563333 C29.1235455,75.4563333 21.1616364,67.4944242 21.1616364,57.7081818 C21.1616364,47.9219394 29.1235455,39.9600303 38.9097879,39.9600303 C48.6960303,39.9600303 56.6579394,47.9215455 56.6579394,57.7081818 C56.6579394,67.4948182 48.6964242,75.4563333 38.9097879,75.4563333 Z M61.3753636,58.1021212 C61.3777273,57.9705455 61.3852121,57.8401515 61.3852121,57.7081818 C61.3852121,45.3152424 51.3027273,35.2327576 38.9097879,35.2327576 C26.5168485,35.2327576 16.4343636,45.3152424 16.4343636,57.7081818 C16.4343636,57.8401515 16.4422424,57.9705455 16.4442121,58.1021212 L4.8860303,58.1021212 L4.8860303,23.8156061 L72.9331515,23.8156061 L72.9331515,58.1021212 L61.3753636,58.1021212 Z" id="Shape"></path>
                        <path d="M41.2734242,58.3046061 L41.2734242,46.8701212 C41.2734242,45.565 40.2149091,44.5064848 38.9097879,44.5064848 C37.6046667,44.5064848 36.5461515,45.565 36.5461515,46.8701212 L36.5461515,59.2839394 C36.5461515,59.910697 36.7951212,60.5118485 37.238303,60.9554242 L42.6707273,66.3882424 C43.1324242,66.8495455 43.7371212,67.0803939 44.3422121,67.0803939 C44.9469091,67.0803939 45.552,66.8495455 46.013697,66.3882424 C46.936697,65.4652424 46.936697,63.9686667 46.013697,63.0456667 L41.2734242,58.3046061 Z" id="Shape"></path>
                    </g>
                </g>
            </g>
        </g>
    </g>
</svg>

<svg width="78" height="81" viewBox="0 0 78 81" xmlns="http://www.w3.org/2000/svg"><title>schedule</title><g fill="none" fill-rule="evenodd"><path fill="#FFF" d="M3 17h72v41H3z"/><path fill="#FFAF1D" d="M3 7h72v13H3z"/><circle fill="#00AAE3" cx="38" cy="58" r="19"/><g fill="#000" fill-rule="nonzero"><path d="M75.297 4.695H59.81V2.364a2.364 2.364 0 0 0-4.727 0v2.331H41.273V2.364a2.364 2.364 0 0 0-4.727 0v2.331H23.324V2.364a2.364 2.364 0 0 0-4.727 0v2.331H2.523A2.364 2.364 0 0 0 .159 7.059v53.407a2.364 2.364 0 0 0 2.364 2.363H17.03c2.325 9.933 11.249 17.355 21.88 17.355 10.63 0 19.555-7.422 21.88-17.355h14.507a2.364 2.364 0 0 0 2.363-2.363V7.059a2.363 2.363 0 0 0-2.363-2.364zm-56.7 4.727v2.136a2.364 2.364 0 0 0 4.727 0V9.422h13.222v2.136a2.364 2.364 0 0 0 4.727 0V9.422h13.81v2.136a2.364 2.364 0 0 0 4.726 0V9.422h13.125v9.666H4.886V9.422h13.711zM38.91 75.456c-9.786 0-17.748-7.962-17.748-17.748 0-9.786 7.962-17.748 17.748-17.748 9.786 0 17.748 7.962 17.748 17.748 0 9.787-7.962 17.748-17.748 17.748zm22.465-17.354c.003-.131.01-.262.01-.394 0-12.393-10.082-22.475-22.475-22.475S16.434 45.315 16.434 57.708c0 .132.008.263.01.394H4.886V23.816h68.047v34.286H61.375z"/><path d="M41.273 58.305V46.87a2.364 2.364 0 0 0-4.727 0v12.414c0 .627.25 1.228.692 1.671l5.433 5.433a2.357 2.357 0 0 0 1.671.692 2.364 2.364 0 0 0 1.671-4.035l-4.74-4.74z"/></g></g></svg>
